nextcloudappstore/core/static/assets/img/icons/resources/creation.svg

<svg width="20" height="20" fill="none" style="-webkit-print-color-adjust:exact" version="1.1" viewBox="0 0 20 20" xmlns="http://www.w3.org/2000/svg"><g rx="0" ry="0" fill="#000"><g class="fills"><path rx="0" ry="0" d="m15.833 0.833-1.05 2.292-2.283 1.042 2.283 1.05 1.05 2.283 1.042-2.283 2.292-1.05-2.292-1.042m-9.375 0.208-2.083 4.584-4.584 2.083 4.584 2.083 2.083 4.584 2.083-4.584 4.584-2.083-4.584-2.083m6.25 4.583-1.05 2.283-2.283 1.05 2.283 1.042 1.05 2.292 1.042-2.292 2.292-1.042-2.292-1.05"/></g></g></svg>

<svg xmlns:xlink="http://www.w3.org/1999/xlink" width="20" xmlns="http://www.w3.org/2000/svg" height="20" id="screenshot-db15cf86-6f9e-8025-8002-bbab9ed6fe1f" viewBox="0 0 20 20" style="-webkit-print-color-adjust: exact;" fill="none" version="1.1"><g id="shape-db15cf86-6f9e-8025-8002-bbab9ed6fe1f" rx="0" ry="0" style="fill: rgb(0, 0, 0);"><g id="shape-db15cf86-6f9e-8025-8002-bbab9ed6fe21"><g class="fills" id="fills-db15cf86-6f9e-8025-8002-bbab9ed6fe21"><path rx="0" ry="0" d="M15.833,0.833L14.783,3.125L12.500,4.167L14.783,5.217L15.833,7.500L16.875,5.217L19.167,4.167L16.875,3.125M7.500,3.333L5.417,7.917L0.833,10.000L5.417,12.083L7.500,16.667L9.583,12.083L14.167,10.000L9.583,7.917M15.833,12.500L14.783,14.783L12.500,15.833L14.783,16.875L15.833,19.167L16.875,16.875L19.167,15.833L16.875,14.783"/></g></g></g></svg>
